packages/foundations/assets/icons/functional/images/environment/cloud_14.svg

<svg width="14" height="14" viewBox="0 0 14 14" fill="none" xmlns="http://www.w3.org/2000/svg">
<g clip-path="url(#clip0_185_795)">
<path fill-rule="evenodd" clip-rule="evenodd" d="M5.72774 4.04043L5.60002 4.2L5.45747 4.2036C4.41772 4.2561 3.5076 4.87984 3.07112 5.79621L3.04782 5.8478L2.99609 5.87132C2.03824 6.32732 1.40002 7.30141 1.40002 8.4C1.40002 9.9464 2.65363 11.2 4.20002 11.2L9.94363 11.1961C11.4405 11.1097 12.6 9.88524 12.6 8.4L12.5952 8.23404C12.5596 7.62876 12.3302 7.06164 11.951 6.60735L11.8909 6.5401C11.897 6.42655 11.9 6.34652 11.9 6.3C11.9 4.36701 10.333 2.8 8.40002 2.8C7.41398 2.84643 6.34602 3.30806 5.72774 4.04043ZM8.40002 4.2C9.55982 4.2 10.5 5.14021 10.5 6.3C10.5 6.4265 10.4889 6.55125 10.467 6.6734L10.3959 7.07059L10.704 7.3312C11.0169 7.59589 11.2 7.98222 11.2 8.4C11.2 9.14246 10.6201 9.7549 9.88293 9.79761L4.20002 9.8C3.42683 9.8 2.80002 9.1732 2.80002 8.4C2.80002 7.77905 3.20808 7.23729 3.79282 7.05995L4.15078 6.95139L4.25947 6.59346C4.43719 6.00813 4.97902 5.6 5.60002 5.6C5.68138 5.6 5.76154 5.60687 5.84007 5.62039L6.32766 5.70433L6.5695 5.2727C6.93792 4.61518 7.632 4.2 8.40002 4.2Z" fill="#1A1C1F"/>
</g>
<defs>
<clipPath id="clip0_185_795">
<rect width="14" height="14" fill="white"/>
</clipPath>
</defs>
</svg>

<svg xmlns="http://www.w3.org/2000/svg" width="14" height="14" fill="none"><g clip-path="url(#a)"><path fill="#1A1C1F" fill-rule="evenodd" d="M5.728 4.04 5.6 4.2l-.143.004a2.8 2.8 0 0 0-2.386 1.592l-.023.052-.052.023A2.801 2.801 0 0 0 4.2 11.2l5.744-.004A2.804 2.804 0 0 0 12.6 8.4l-.005-.166a2.8 2.8 0 0 0-.644-1.627l-.06-.067q.009-.17.009-.24a3.5 3.5 0 0 0-3.5-3.5c-.986.046-2.054.508-2.672 1.24M8.4 4.2a2.1 2.1 0 0 1 2.067 2.473l-.071.398.308.26a1.4 1.4 0 0 1-.821 2.466L4.2 9.8a1.4 1.4 0 0 1-.407-2.74l.358-.109.108-.358A1.4 1.4 0 0 1 5.84 5.62l.488.084.241-.431A2.1 2.1 0 0 1 8.4 4.2" clip-rule="evenodd"/></g><defs><clipPath id="a"><path fill="#fff" d="M0 0h14v14H0z"/></clipPath></defs></svg>
